X: 21421
T: MARQUIS OF WATERFORD'S HORNPIPE
R: hornpipe
B: K\"ohler's Violin Repository, v.2, 1885 p.142 #1
F: http://www.archive.org/details/klersviolinrepos02rugg
Z: 2012 John Chambers <jc:trillian.mit.edu>
M: C|
L: 1/8
K: Bb
u(FGA) |\
(B>A).B>.c (B>f).g>.a | b>(BA>B) G>BF>B | E2g>f (e>d)c>B | (3ABc (3BAG F>(ed>c) |
(B>A)B>c (B>f)g>a | b>(BA>B) G>Be>g | (f>d)B>d (c>A)F>A | B2B2B2 :|
|: (f>g) |\
(f>d)b>g (f>d)B>d | (f>d)b>g (f>d)B>d | (B>d)g>f (e>d)c>B | (3ABc (3BAG F>(ed>c) |
(B>A)B>c (B>f)g>a | b>(BA>B) G>Be>g | (f>d)B>d (c>A)F>A | B2B2B2 :|

%%sep 2 1 500

